docs/figs/junction/doc.1.svg

<svg class="typst-doc" viewBox="0 0 595.2755905511812 841.8897637795276" width="595.2755905511812pt" height="841.8897637795276pt" xmlns="http://www.w3.org/2000/svg" xmlns:xlink="http://www.w3.org/1999/xlink" xmlns:h5="http://www.w3.org/1999/xhtml">
    <path class="typst-shape" fill="#ffffff" fill-rule="nonzero" d="M 0 0v 841.8898 h 595.2756 v -841.8898 Z "/>
    <g>
        <g class="typst-group">
            <g>
                <g class="typst-group" transform="matrix(1 0 0 1 70.86614173228347 70.86614173228347)">
                    <g>
                        <path class="typst-shape" fill="#ffdabb" fill-rule="nonzero" d="M 0 0m 0 5.6692915 c 0 -3.1310632 2.5382283 -5.6692915 5.6692915 -5.6692915 h 187.08661 c 3.1310577 0 5.6692963 2.5382283 5.6692963 5.6692915 v 187.08661 c 0 3.1310577 -2.5382385 5.6692963 -5.6692963 5.6692963 h -187.08661 c -3.1310632 0 -5.6692915 -2.5382385 -5.6692915 -5.6692963 Z "/>
                        <g class="typst-text" transform="matrix(1 0 0 -1 91.98798905019684 108.32978592519684)">
                            <use xlink:href="#g7E1C1581A47EA20F4BC012E6CBAFD23D" x="0" y="0" fill="#000000" fill-rule="nonzero"/>
                        </g>
                    </g>
                </g>
                <g class="typst-group" transform="matrix(1 0 0 1 65.86614173228347 65.86614173228347)">
                    <g>
                        <path class="typst-shape" fill="url(#p2CB0945C32E42AF419F6A0728ED3DF9E)" fill-rule="nonzero" stroke="#ff4136" stroke-width="1" stroke-linecap="butt" stroke-linejoin="miter" stroke-miterlimit="4" d="M 0 0v 208.4252 h 208.4252 v -208.4252 Z "/>
                    </g>
                </g>
                <g class="typst-group" transform="matrix(1 0 0 1 274.29133858267716 70.86614173228347)">
                    <g>
                        <path class="typst-shape" fill="url(#pDF078EC4E273137237597002BEABBB2C)" fill-rule="nonzero" stroke="#2ecc40" stroke-width="1" stroke-linecap="butt" stroke-linejoin="miter" stroke-miterlimit="4" d="M 0 0v 203.4252 h 250.1181 v -203.4252 Z "/>
                    </g>
                </g>
                <g class="typst-group" transform="matrix(1 0 0 1 70.86614173228347 274.29133858267716)">
                    <g>
                        <path class="typst-shape" fill="url(#pDF078EC4E273137237597002BEABBB2C)" fill-rule="nonzero" stroke="#2ecc40" stroke-width="1" stroke-linecap="butt" stroke-linejoin="miter" stroke-miterlimit="4" d="M 0 0v 111.64567 h 453.5433 v -111.64567 Z "/>
                    </g>
                </g>
            </g>
        </g>
        <g class="typst-group">
            <g>
                <g class="typst-group" transform="matrix(1 0 0 1 226.77165354330708 685.9842519685039)">
                    <g>
                        <path class="typst-shape" fill="#b2d5f4" fill-rule="nonzero" d="M 0 0m 0 5.6692915 c 0 -3.1310632 2.5382283 -5.6692915 5.6692915 -5.6692915 h 130.39369 c 3.131073 0 5.6692963 2.5382283 5.6692963 5.6692915 v 73.70079 c 0 3.1310654 -2.5382233 5.6692886 -5.6692963 5.6692886 h -130.39369 c -3.1310632 0 -5.6692915 -2.5382233 -5.6692915 -5.6692886 Z "/>
                        <g class="typst-text" transform="matrix(1 0 0 -1 63.64153235728347 51.63687253937008)">
                            <use xlink:href="#g5280DEB5F232DE6527639522E7CB0EC7" x="0" y="0" fill="#000000" fill-rule="nonzero"/>
                        </g>
                    </g>
                </g>
                <g class="typst-group" transform="matrix(1 0 0 1 221.77165354330708 680.9842519685039)">
                    <g>
                        <path class="typst-shape" fill="url(#p2CB0945C32E42AF419F6A0728ED3DF9E)" fill-rule="nonzero" stroke="#ff4136" stroke-width="1" stroke-linecap="butt" stroke-linejoin="miter" stroke-miterlimit="4" d="M 0 0v 95.03937 h 151.73228 v -95.03937 Z "/>
                    </g>
                </g>
                <g class="typst-group" transform="matrix(1 0 0 1 70.86614173228347 420.9448818897638)">
                    <g>
                        <path class="typst-shape" fill="url(#pDF078EC4E273137237597002BEABBB2C)" fill-rule="nonzero" stroke="#2ecc40" stroke-width="1" stroke-linecap="butt" stroke-linejoin="miter" stroke-miterlimit="4" d="M 0 0v 260.03937 h 217.70079 v -260.03937 Z "/>
                    </g>
                </g>
                <g class="typst-group" transform="matrix(1 0 0 1 70.86614173228347 680.9842519685039)">
                    <g>
                        <path class="typst-shape" fill="url(#pDF078EC4E273137237597002BEABBB2C)" fill-rule="nonzero" stroke="#2ecc40" stroke-width="1" stroke-linecap="butt" stroke-linejoin="miter" stroke-miterlimit="4" d="M 0 0v 90.03937 h 150.90552 v -90.03937 Z "/>
                    </g>
                </g>
                <g class="typst-group" transform="matrix(1 0 0 1 306.70866141732284 420.9448818897638)">
                    <g>
                        <path class="typst-shape" fill="url(#pDF078EC4E273137237597002BEABBB2C)" fill-rule="nonzero" stroke="#2ecc40" stroke-width="1" stroke-linecap="butt" stroke-linejoin="miter" stroke-miterlimit="4" d="M 0 0v 260.03937 h 217.70079 v -260.03937 Z "/>
                    </g>
                </g>
                <g class="typst-group" transform="matrix(1 0 0 1 373.503937007874 680.9842519685039)">
                    <g>
                        <path class="typst-shape" fill="url(#pDF078EC4E273137237597002BEABBB2C)" fill-rule="nonzero" stroke="#2ecc40" stroke-width="1" stroke-linecap="butt" stroke-linejoin="miter" stroke-miterlimit="4" d="M 0 0v 90.03937 h 150.90552 v -90.03937 Z "/>
                    </g>
                </g>
            </g>
        </g>
    </g>
    <defs id="glyph">
        <symbol id="g7E1C1581A47EA20F4BC012E6CBAFD23D" overflow="visible">
            <path d="M 0 0m 3.1640625 1.9921875 h 3.6796875 v 13.371094 l -3.9609375 -0.890625 v 2.15625 l 3.9375 0.8671875 h 2.3671875 v -15.503906 h 3.6328125 v -1.9921875 h -9.65625 v 1.9921875 Z "/>
        </symbol>
        <symbol id="g5280DEB5F232DE6527639522E7CB0EC7" overflow="visible">
            <path d="M 0 0m 4.3710938 1.9921875 h 8.0390625 v -1.9921875 h -10.628906 v 1.9921875 q 2.1914063 2.3085938 3.8320313 4.078125 q 1.640625 1.7695313 2.2617188 2.4960938 q 1.171875 1.4296875 1.5820313 2.3144531 q 0.41015625 0.8847656 0.41015625 1.8105469 q 0 1.4648438 -0.8613281 2.296875 q -0.8613281 0.83203125 -2.3613281 0.83203125 q -1.0664063 0 -2.2382813 -0.38671875 q -1.171875 -0.38671875 -2.484375 -1.171875 v 2.390625 q 1.2070313 0.57421875 2.3730469 0.8671875 q 1.1660156 0.29296875 2.3027344 0.29296875 q 2.5664063 0 4.1308594 -1.3652344 q 1.5644531 -1.3652344 1.5644531 -3.5800781 q 0 -1.125 -0.5214844 -2.25 q -0.5214844 -1.125 -1.6933594 -2.484375 q -0.65625 -0.76171875 -1.9042969 -2.109375 q -1.2480469 -1.3476563 -3.8027344 -4.03125 Z "/>
        </symbol>
    </defs>
    <defs id="tilings">
        <pattern id="t9F83376A2611421707EE7454E4C83DC4" width="30" height="30" patternUnits="userSpaceOnUse" viewBox="0 0 30.000 30.000">
            <g>
                <g class="typst-group">
                    <g>
                        <path class="typst-shape" fill="#ff41360d" fill-rule="nonzero" d="M 0 0v 30 h 30 v -30 Z "/>
                    </g>
                </g>
                <path class="typst-shape" fill="none" stroke="#ff4136" stroke-width="0.1" stroke-linecap="butt" stroke-linejoin="miter" stroke-miterlimit="4" transform="matrix(1 0 0 1 7.5 7.5)" d="M 0 0l 15 15 "/>
                <path class="typst-shape" fill="none" stroke="#ff4136" stroke-width="0.1" stroke-linecap="butt" stroke-linejoin="miter" stroke-miterlimit="4" transform="matrix(1 0 0 1 7.5 22.5)" d="M 0 0l 15 -15 "/>
            </g>
        </pattern>
        <pattern id="t3A564B1B28519AA40A2F922E33ADCCE1" width="30" height="30" patternUnits="userSpaceOnUse" viewBox="0 0 30.000 30.000">
            <g>
                <g class="typst-group">
                    <g>
                        <path class="typst-shape" fill="#2ecc400d" fill-rule="nonzero" d="M 0 0v 30 h 30 v -30 Z "/>
                    </g>
                </g>
                <path class="typst-shape" fill="none" stroke="#2ecc40" stroke-width="0.1" stroke-linecap="butt" stroke-linejoin="miter" stroke-miterlimit="4" transform="matrix(1 0 0 1 7.5 15)" d="M 0 0h 15 "/>
                <path class="typst-shape" fill="none" stroke="#2ecc40" stroke-width="0.1" stroke-linecap="butt" stroke-linejoin="miter" stroke-miterlimit="4" transform="matrix(1 0 0 1 15 7.5)" d="M 0 0v 15 "/>
            </g>
        </pattern>
    </defs>
    <defs id="tilings-refs">
        <pattern patternTransform="matrix(1 0 0 1 0 0)" id="p2CB0945C32E42AF419F6A0728ED3DF9E" href="#t9F83376A2611421707EE7454E4C83DC4" xlink:href="#t9F83376A2611421707EE7454E4C83DC4"/>
        <pattern patternTransform="matrix(1 0 0 1 0 0)" id="pDF078EC4E273137237597002BEABBB2C" href="#t3A564B1B28519AA40A2F922E33ADCCE1" xlink:href="#t3A564B1B28519AA40A2F922E33ADCCE1"/>
    </defs>
</svg>

<svg class="typst-doc" viewBox="0 0 595.2755905511812 841.8897637795276" width="595.2755905511812pt" height="841.8897637795276pt" xmlns="http://www.w3.org/2000/svg" xmlns:xlink="http://www.w3.org/1999/xlink" xmlns:h5="http://www.w3.org/1999/xhtml">
    <path class="typst-shape" fill="#ffffff" fill-rule="nonzero" d="M 0 0 L 0 841.8898 L 595.2756 841.8898 L 595.2756 0 Z "/>
    <g>
        <g transform="translate(70.86614173228347 70.86614173228347)">
            <g class="typst-group">
                <g>
                    <g transform="translate(0 0)">
                        <g class="typst-group">
                            <g>
                                <g transform="translate(-0 -0)">
                                    <path class="typst-shape" fill="#ffdabb" fill-rule="nonzero" d="M 0 5.6692915 C 0 2.5382283 2.5382283 0 5.6692915 0 L 192.7559 0 C 195.88696 0 198.4252 2.5382283 198.4252 5.6692915 L 198.4252 192.7559 C 198.4252 195.88696 195.88696 198.4252 192.7559 198.4252 L 5.6692915 198.4252 C 2.5382283 198.4252 0 195.88696 0 192.7559 Z "/>
                                </g>
                                <g transform="translate(91.98798905019684 108.32978592519684)">
                                    <g class="typst-text" transform="scale(1, -1)">
                                        <use xlink:href="#gF240486548E416AE1A570F31F6ED1982" x="0" fill="#000000" fill-rule="nonzero"/>
                                    </g>
                                </g>
                            </g>
                        </g>
                    </g>
                    <g transform="translate(-5 -5)">
                        <g class="typst-group">
                            <g>
                                <g transform="translate(-0 -0)">
                                    <path class="typst-shape" fill="url(#p66BC1ACEBEA5C6998C7490CA09760A00)" fill-rule="nonzero" stroke="#ff4136" stroke-width="1" stroke-linecap="butt" stroke-linejoin="miter" stroke-miterlimit="4" d="M 0 0 L 0 208.4252 L 208.4252 208.4252 L 208.4252 0 Z "/>
                                </g>
                            </g>
                        </g>
                    </g>
                    <g transform="translate(203.4251968503937 0)">
                        <g class="typst-group">
                            <g>
                                <g transform="translate(-0 -0)">
                                    <path class="typst-shape" fill="url(#p55E11A1058E5598A3D909D528C8D726B)" fill-rule="nonzero" stroke="#2ecc40" stroke-width="1" stroke-linecap="butt" stroke-linejoin="miter" stroke-miterlimit="4" d="M 0 0 L 0 203.4252 L 250.1181 203.4252 L 250.1181 0 Z "/>
                                </g>
                            </g>
                        </g>
                    </g>
                    <g transform="translate(0 203.4251968503937)">
                        <g class="typst-group">
                            <g>
                                <g transform="translate(-0 -0)">
                                    <path class="typst-shape" fill="url(#p55E11A1058E5598A3D909D528C8D726B)" fill-rule="nonzero" stroke="#2ecc40" stroke-width="1" stroke-linecap="butt" stroke-linejoin="miter" stroke-miterlimit="4" d="M 0 0 L 0 111.64567 L 453.5433 111.64567 L 453.5433 0 Z "/>
                                </g>
                            </g>
                        </g>
                    </g>
                </g>
            </g>
        </g>
        <g transform="translate(70.86614173228347 70.86614173228347)">
            <g class="typst-group">
                <g>
                    <g transform="translate(155.90551181102362 615.1181102362204)">
                        <g class="typst-group">
                            <g>
                                <g transform="translate(-0 -0)">
                                    <path class="typst-shape" fill="#b3d5f4" fill-rule="nonzero" d="M 0 5.6692915 C 0 2.5382283 2.5382283 0 5.6692915 0 L 136.06299 0 C 139.19406 0 141.73228 2.5382283 141.73228 5.6692915 L 141.73228 79.37008 C 141.73228 82.501144 139.19406 85.03937 136.06299 85.03937 L 5.6692915 85.03937 C 2.5382283 85.03937 0 82.501144 0 79.37008 Z "/>
                                </g>
                                <g transform="translate(63.64153235728347 51.63687253937008)">
                                    <g class="typst-text" transform="scale(1, -1)">
                                        <use xlink:href="#g21E883D563F2E9D303D6F61E0E635A13" x="0" fill="#000000" fill-rule="nonzero"/>
                                    </g>
                                </g>
                            </g>
                        </g>
                    </g>
                    <g transform="translate(150.90551181102362 610.1181102362204)">
                        <g class="typst-group">
                            <g>
                                <g transform="translate(-0 -0)">
                                    <path class="typst-shape" fill="url(#p66BC1ACEBEA5C6998C7490CA09760A00)" fill-rule="nonzero" stroke="#ff4136" stroke-width="1" stroke-linecap="butt" stroke-linejoin="miter" stroke-miterlimit="4" d="M 0 0 L 0 95.03937 L 151.73228 95.03937 L 151.73228 0 Z "/>
                                </g>
                            </g>
                        </g>
                    </g>
                    <g transform="translate(0 350.0787401574803)">
                        <g class="typst-group">
                            <g>
                                <g transform="translate(-0 -0)">
                                    <path class="typst-shape" fill="url(#p55E11A1058E5598A3D909D528C8D726B)" fill-rule="nonzero" stroke="#2ecc40" stroke-width="1" stroke-linecap="butt" stroke-linejoin="miter" stroke-miterlimit="4" d="M 0 0 L 0 260.03937 L 217.70079 260.03937 L 217.70079 0 Z "/>
                                </g>
                            </g>
                        </g>
                    </g>
                    <g transform="translate(0 610.1181102362204)">
                        <g class="typst-group">
                            <g>
                                <g transform="translate(-0 -0)">
                                    <path class="typst-shape" fill="url(#p55E11A1058E5598A3D909D528C8D726B)" fill-rule="nonzero" stroke="#2ecc40" stroke-width="1" stroke-linecap="butt" stroke-linejoin="miter" stroke-miterlimit="4" d="M 0 0 L 0 90.03937 L 150.90552 90.03937 L 150.90552 0 Z "/>
                                </g>
                            </g>
                        </g>
                    </g>
                    <g transform="translate(235.84251968503938 350.0787401574803)">
                        <g class="typst-group">
                            <g>
                                <g transform="translate(-0 -0)">
                                    <path class="typst-shape" fill="url(#p55E11A1058E5598A3D909D528C8D726B)" fill-rule="nonzero" stroke="#2ecc40" stroke-width="1" stroke-linecap="butt" stroke-linejoin="miter" stroke-miterlimit="4" d="M 0 0 L 0 260.03937 L 217.70079 260.03937 L 217.70079 0 Z "/>
                                </g>
                            </g>
                        </g>
                    </g>
                    <g transform="translate(302.6377952755906 610.1181102362204)">
                        <g class="typst-group">
                            <g>
                                <g transform="translate(-0 -0)">
                                    <path class="typst-shape" fill="url(#p55E11A1058E5598A3D909D528C8D726B)" fill-rule="nonzero" stroke="#2ecc40" stroke-width="1" stroke-linecap="butt" stroke-linejoin="miter" stroke-miterlimit="4" d="M 0 0 L 0 90.03937 L 150.90552 90.03937 L 150.90552 0 Z "/>
                                </g>
                            </g>
                        </g>
                    </g>
                </g>
            </g>
        </g>
    </g>
    <defs id="glyph">
        <symbol id="gF240486548E416AE1A570F31F6ED1982" overflow="visible">
            <path d="M 3.1640625 1.9921875 L 6.84375 1.9921875 L 6.84375 15.363281 L 2.8828125 14.472656 L 2.8828125 16.628906 L 6.8203125 17.496094 L 9.1875 17.496094 L 9.1875 1.9921875 L 12.8203125 1.9921875 L 12.8203125 0 L 3.1640625 0 L 3.1640625 1.9921875 Z "/>
        </symbol>
        <symbol id="g21E883D563F2E9D303D6F61E0E635A13" overflow="visible">
            <path d="M 4.3710938 1.9921875 L 12.410156 1.9921875 L 12.410156 0 L 1.78125 0 L 1.78125 1.9921875 Q 3.9726563 4.3007813 5.6132813 6.0703125 Q 7.2539063 7.8398438 7.875 8.566406 Q 9.046875 9.996094 9.457031 10.880859 Q 9.8671875 11.765625 9.8671875 12.691406 Q 9.8671875 14.15625 9.005859 14.988281 Q 8.144531 15.8203125 6.6445313 15.8203125 Q 5.578125 15.8203125 4.40625 15.433594 Q 3.234375 15.046875 1.921875 14.261719 L 1.921875 16.652344 Q 3.1289063 17.226563 4.294922 17.519531 Q 5.4609375 17.8125 6.5976563 17.8125 Q 9.1640625 17.8125 10.728516 16.447266 Q 12.292969 15.082031 12.292969 12.8671875 Q 12.292969 11.7421875 11.771484 10.6171875 Q 11.25 9.4921875 10.078125 8.1328125 Q 9.421875 7.3710938 8.173828 6.0234375 Q 6.9257813 4.6757813 4.3710938 1.9921875 Z "/>
        </symbol>
    </defs>
    <defs id="tilings">
        <pattern id="t2F67AF8BD27593D2058F42E652AA4BE7" width="30" height="30" patternUnits="userSpaceOnUse" viewBox="0 0 30.000 30.000">
            <g>
                <g transform="translate(0 0)">
                    <g class="typst-group">
                        <g>
                            <g transform="translate(-0 -0)">
                                <path class="typst-shape" fill="#ff41360d" fill-rule="nonzero" d="M 0 0 L 0 30 L 30 30 L 30 0 Z "/>
                            </g>
                        </g>
                    </g>
                </g>
                <g transform="translate(7.5 7.5)">
                    <path class="typst-shape" fill="none" stroke="#ff4136" stroke-width="0.1" stroke-linecap="butt" stroke-linejoin="miter" stroke-miterlimit="4" d="M 0 0 L 15 15 "/>
                </g>
                <g transform="translate(7.5 22.5)">
                    <path class="typst-shape" fill="none" stroke="#ff4136" stroke-width="0.1" stroke-linecap="butt" stroke-linejoin="miter" stroke-miterlimit="4" d="M 0 0 L 15 -15 "/>
                </g>
            </g>
        </pattern>
        <pattern id="tD06D5C9FDDE18B7ECBF28FBB1815F39E" width="30" height="30" patternUnits="userSpaceOnUse" viewBox="0 0 30.000 30.000">
            <g>
                <g transform="translate(0 0)">
                    <g class="typst-group">
                        <g>
                            <g transform="translate(-0 -0)">
                                <path class="typst-shape" fill="#2ecc400d" fill-rule="nonzero" d="M 0 0 L 0 30 L 30 30 L 30 0 Z "/>
                            </g>
                        </g>
                    </g>
                </g>
                <g transform="translate(7.5 15)">
                    <path class="typst-shape" fill="none" stroke="#2ecc40" stroke-width="0.1" stroke-linecap="butt" stroke-linejoin="miter" stroke-miterlimit="4" d="M 0 0 L 15 0 "/>
                </g>
                <g transform="translate(15 7.5)">
                    <path class="typst-shape" fill="none" stroke="#2ecc40" stroke-width="0.1" stroke-linecap="butt" stroke-linejoin="miter" stroke-miterlimit="4" d="M 0 0 L 0 15 "/>
                </g>
            </g>
        </pattern>
    </defs>
    <defs id="tilings-refs">
        <pattern patternTransform="matrix(1 0 0 1 0 0)" id="p66BC1ACEBEA5C6998C7490CA09760A00" href="#t2F67AF8BD27593D2058F42E652AA4BE7" xlink:href="#t2F67AF8BD27593D2058F42E652AA4BE7"/>
        <pattern patternTransform="matrix(1 0 0 1 0 0)" id="p55E11A1058E5598A3D909D528C8D726B" href="#tD06D5C9FDDE18B7ECBF28FBB1815F39E" xlink:href="#tD06D5C9FDDE18B7ECBF28FBB1815F39E"/>
    </defs>
</svg>
